app/img/solutions-page/services-tabs-button-icon.svg

<svg width="25" height="18" viewBox="0 0 25 18" fill="none" xmlns="http://www.w3.org/2000/svg">
<path d="M15.3677 17.2631L15.3681 17.2628L23.992 9.57192C24.0563 9.51455 24.1077 9.44511 24.1438 9.3696L24.1438 9.3696L24.1444 9.36824C24.2183 9.2106 24.2185 9.03099 24.145 8.87324C24.1088 8.79372 24.0561 8.72447 23.9913 8.66768C23.991 8.66742 23.9907 8.66716 23.9904 8.6669L15.3681 0.97574L15.3681 0.975725C15.1053 0.741425 14.687 0.741425 14.4243 0.975725C14.1482 1.22191 14.1482 1.6323 14.4243 1.87848L21.8392 8.49194H1.47916C1.12636 8.49194 0.799999 8.75201 0.799999 9.11926C0.799999 9.48652 1.12636 9.74658 1.47916 9.74658H21.8391L14.4243 16.3592C14.2893 16.4796 14.2165 16.6427 14.2165 16.811C14.2165 16.9791 14.2891 17.1419 14.4226 17.2621L14.4237 17.2631C14.6873 17.497 15.1041 17.497 15.3677 17.2631Z" fill="white" stroke="white" stroke-width="0.4"/>
</svg>

<svg width="25" height="18" fill="none" xmlns="http://www.w3.org/2000/svg"><path d="M15.368 17.263h0l8.624-7.691a.644.644 0 00.152-.202h0v-.002a.582.582 0 00.001-.495.608.608 0 00-.154-.205v-.001L15.367.976h0a.721.721 0 00-.944 0 .595.595 0 000 .902l7.415 6.614H1.48c-.353 0-.679.26-.679.627 0 .368.326.628.68.628h20.36l-7.416 6.612a.604.604 0 00-.207.452c0 .168.072.33.206.451v.001a.724.724 0 00.945 0z" fill="#fff" stroke="#fff" stroke-width=".4"/></svg>
